**kern	**silbe	**harmony	**chordsym	**phrase	**timestamp	**leadinstrument
*ICvox	*	*M4/4	*M4/4	*	*	*
*	*	*E:	*E:	*	*	*
=1	=1	=1	=1	=1	=1	=1
*E:	*	*	*	*	*	*
*M4/4	*	*	*	*	*	*
*clefF4	*	*	*	*	*	*
1r	.	1r;	r	.	0	r
=2	=2	=2	=2	=2	=2	=2
*	*	*>A2_intro	*>A2_intro	*>A2_intro	*>A2_intro	*>A2_intro
1r	.	1EM	E:maj (E G# B)	newline	0.395	guitar
=3	=3	=3	=3	=3	=3	=3
1r	.	2F#mm	F#:min7 (F# A C# E)	.	.	guitar
.	.	4AM	A:maj (A C# E)	.	.	guitar
.	.	4BM	B:sus4(b7) (B E F# A)	.	.	guitar
=4	=4	=4	=4	=4	=4	=4
2r	.	1EM	E:maj (E G# B)	.	.	guitar
4r	.	.	.	.	.	.
8B	He	.	.	.	.	.
16B	was	.	.	.	.	.
[16B	born	.	.	.	.	.
=5	=5	=5	=5	=5	=5	=5
4B]	_	2F#mm	F#:min7 (F# A C# E)	.	.	guitar
8B	in	.	.	.	.	.
16B	the	.	.	.	.	.
[16B	sum	.	.	.	.	.
16B]	_	4AM	A:maj (A C# E)	.	.	guitar
8G#	mer,	.	.	.	.	.
16r	_	.	.	.	.	.
16r	.	4BM	B:sus4(b7) (B E F# A)	.	.	guitar
16G#	of	.	.	.	.	.
8B	his	.	.	.	.	.
=6	=6	=6	=6	=6	=6	=6
*	*	*>A_verse	*>A_verse	*>A_verse	*>A_verse	*>A_verse
16B	twen-	1EM	E:maj (E G# B)	newline	12.375	voice
8G#	-ty	.	.	.	.	.
16A	se-	.	.	.	.	.
8G#	-venth	.	.	.	.	.
[8F#	year,	.	.	.	.	.
8F#]	_	.	.	.	.	.
8r	_	.	.	.	.	.
8r	.	.	.	.	.	.
16A	co-	.	.	.	.	.
16B	-ming	.	.	.	.	.
=7	=7	=7	=7	=7	=7	=7
4.B	home	2F#mm	F#:min7 (F# A C# E)	.	.	voice
16B	to	.	.	.	.	.
16B	a	.	.	.	.	.
8B	place	4AM	A:maj (A C# E)	.	.	voice
8B	he'd	.	.	.	.	.
16A	ne-	4BM	B:sus4(b7) (B E F# A)	.	.	voice
8.G#	-ver	.	.	.	.	.
=8	=8	=8	=8	=8	=8	=8
8A	been	1EM	E:maj (E G# B)	.	.	voice
16E	be-	.	.	.	.	.
[16E	-fore	.	.	.	.	.
8E]	_	.	.	.	.	.
8r	.	.	.	.	.	.
4r	.	.	.	.	.	.
8r	.	.	.	.	.	.
16B	He	.	.	.	.	.
16B	left	.	.	.	.	.
=9	=9	=9	=9	=9	=9	=9
8B	yes-	2F#mm	F#:min7 (F# A C# E)	.	.	voice
16B	-ter-	.	.	.	.	.
[16B	-day	.	.	.	.	.
8B]	_	.	.	.	.	.
16B	be-	.	.	.	.	.
[16e	-hind	.	.	.	.	.
8e]	_	4AM	A:maj (A C# E)	.	.	voice
[8c#	him,	.	.	.	.	.
16c#]	_	4BM	B:sus4(b7) (B E F# A)	.	.	voice
16B	you	.	.	.	.	.
8B	might	.	.	.	.	.
=10	=10	=10	=10	=10	=10	=10
16B	say	1EM	E:maj (E G# B)	newline	24.435	voice
8A	he	.	.	.	.	.
16A	was	.	.	.	.	.
8A	born	.	.	.	.	.
16B	a-	.	.	.	.	.
16F#	-gain,	.	.	.	.	.
4r	_	.	.	.	.	.
8r	.	.	.	.	.	.
8B	you	.	.	.	.	.
=11	=11	=11	=11	=11	=11	=11
16B	might	2F#mm	F#:min7 (F# A C# E)	.	.	voice
8B	say	.	.	.	.	.
16B	he	.	.	.	.	.
8c#	found	.	.	.	.	.
16B	a	.	.	.	.	.
[16B	key	.	.	.	.	.
8B]	_	4AM	A:maj (A C# E)	.	.	voice
16B	for	.	.	.	.	.
[16A	ev	.	.	.	.	.
8A]	_	4BM	B:sus4(b7) (B E F# A)	.	.	voice
16E	'ry	.	.	.	.	.
[16E	door	.	.	.	.	.
=12	=12	=12	=12	=12	=12	=12
4E]	_	1EM	E:maj (E G# B)	.	.	voice
4r	.	.	.	.	.	.
4r	.	.	.	.	.	.
8r	.	.	.	.	.	.
16B	When	.	.	.	.	.
16B	he	.	.	.	.	.
=13	=13	=13	=13	=13	=13	=13
8B	first	2F#mm	F#:min7 (F# A C# E)	.	.	voice
8B	came	.	.	.	.	.
8B	to	.	.	.	.	.
16B	the	.	.	.	.	.
[16B	moun	.	.	.	.	.
16B]	_	4AM	A:maj (A C# E)	.	.	voice
8G#	tains,	.	.	.	.	.
16r	_	.	.	.	.	.
8r	.	4BM	B:sus4(b7) (B E F# A)	.	.	voice
8B	his	.	.	.	.	.
=14	=14	=14	=14	=14	=14	=14
16B	life	1EM	E:maj (E G# B)	newline	36.322	voice
16A	_	.	.	.	.	.
8A	was	.	.	.	.	.
8A	far	.	.	.	.	.
16B	a-	.	.	.	.	.
[16F#	-way,	.	.	.	.	.
8F#]	_	.	.	.	.	.
8r	_	.	.	.	.	.
8Aq	_	.	.	.	.	.
8B	on	.	.	.	.	.
16B	the	.	.	.	.	.
[16B	road	.	.	.	.	.
=15	=15	=15	=15	=15	=15	=15
4.B_	_	2F#mm	F#:min7 (F# A C# E)	.	.	voice
16B]	_	.	.	.	.	.
16G#	and	.	.	.	.	.
16B	han-	4AM	A:maj (A C# E)	.	.	voice
8.B	-ging	.	.	.	.	.
16A	by	4BM	B:sus4(b7) (B E F# A)	.	.	voice
8G#	a	.	.	.	.	.
[16E	song	.	.	.	.	.
=16	=16	=16	=16	=16	=16	=16
4.E]	_	1EM	E:maj (E G# B)	.	.	voice
8r	.	.	.	.	.	.
4r	.	.	.	.	.	.
8r	.	.	.	.	.	.
16B	But	.	.	.	.	.
16B	the	.	.	.	.	.
=17	=17	=17	=17	=17	=17	=17
8B	string's	2F#mm	F#:min7 (F# A C# E)	.	.	voice
8B	al-	.	.	.	.	.
16B	-rea-	.	.	.	.	.
8c#	-dy	.	.	.	.	.
[16e	bro	.	.	.	.	.
8e]	_	4AM	A:maj (A C# E)	.	.	voice
8Bq	_	.	.	.	.	.
[8c#	ken,	.	.	.	.	.
16c#]	_	4BM	B:sus4(b7) (B E F# A)	.	.	voice
16r	_	.	.	.	.	.
16B	and	.	.	.	.	.
16B	he	.	.	.	.	.
=18	=18	=18	=18	=18	=18	=18
16B	does-	1EM	E:maj (E G# B)	newline	48.275	voice
8A	-n't	.	.	.	.	.
16A	r-	.	.	.	.	.
16A	-real-	.	.	.	.	.
8B	-ly	.	.	.	.	.
16F#	care,	.	.	.	.	.
4r	_	.	.	.	.	.
16r	.	.	.	.	.	.
16BB	it	.	.	.	.	.
8B	keeps	.	.	.	.	.
=19	=19	=19	=19	=19	=19	=19
8B	chan-	2F#mm	F#:min7 (F# A C# E)	.	.	voice
16G#	-ging	.	.	.	.	.
16B	fast,	.	.	.	.	.
4r	_	.	.	.	.	.
16G#	and	4AM	A:maj (A C# E)	.	.	voice
8B	it	.	.	.	.	.
16A	don't	.	.	.	.	.
8G#	last	4BM	B:sus4(b7) (B E F# A)	.	.	voice
16E	for	.	.	.	.	.
[16E	long	.	.	.	.	.
=20	=20	=20	=20	=20	=20	=20
4E]	_	1EM	E:maj (E G# B)	.	.	voice
4r	.	.	.	.	.	.
4.r	.	.	.	.	.	.
16C#	But	.	.	.	.	.
16C#	the	.	.	.	.	.
=21	=21	=21	=21	=21	=21	=21
8Bq	_	.	.	.	.	.
8c#	Co-	2F#mm	F#:min7 (F# A C# E)	.	.	voice
16c#	-lo-	.	.	.	.	.
[16c#	-ra	.	.	.	.	.
16c#]	_	.	.	.	.	.
8.c#	do	.	.	.	.	.
8c#q	_	.	.	.	.	.
8B	Ro-	4AM	A:maj (A C# E)	.	.	voice
16B	-cky	.	.	.	.	.
[16B	Moun	.	.	.	.	.
16B]	_	4BM	B:sus4(b7) (B E F# A)	.	.	voice
16G#	tain	.	.	.	.	.
[8B	high!	.	.	.	.	.
=22	=22	=22	=22	=22	=22	=22
*	*	*>B_chorus	*>B_chorus	*>B_chorus	*>B_chorus	*>B_chorus
2B]	_	2AM	A:maj (A C# E)	newline	60.17	voice
4r	_	2BM	B:maj (B D# F#)	.	.	voice
8r	.	.	.	.	.	.
8Bq	_	.	.	.	.	.
8c#	I've	.	.	.	.	.
=23	=23	=23	=23	=23	=23	=23
16c#	seen	1EM	E:maj (E G# B)	.	.	voice
8.c#	it	.	.	.	.	.
8c#	rai-	.	.	.	.	.
8B	-ning	.	.	.	.	.
8B	fi-	.	.	.	.	.
8B	-re	.	.	.	.	.
16B	in	.	.	.	.	.
16A	_	.	.	.	.	.
16A	the	.	.	.	.	.
[16G#	sky!	.	.	.	.	.
=24	=24	=24	=24	=24	=24	=24
2G#]	_	2AM	A:maj (A C# E)	.	.	voice
4.r	_	2BM	B:maj (B D# F#)	.	.	voice
16r	.	.	.	.	.	.
16AA	The	.	.	.	.	.
=25	=25	=25	=25	=25	=25	=25
16B	sha-	1EM	E:maj (E G# B)	.	.	voice
8.c#	-dow	.	.	.	.	.
8c#	from	.	.	.	.	.
16c#	the	.	.	.	.	.
16c#	star	.	.	.	.	.
8d#	_	.	.	.	.	.
16d#q	_	.	.	.	.	.
8c#	light,	.	.	.	.	.
8r	_	.	.	.	.	.
16G#	is	.	.	.	.	.
[16B	sof	.	.	.	.	.
=26	=26	=26	=26	=26	=26	=26
*M2/4	*	*	*	*	*	*
16B]	_	2AM	A:maj (A C# E)	newline	71.901	voice
16B	ter	.	.	.	.	.
16B	than	.	.	.	.	.
16B	a	.	.	.	.	.
8c#	lul-	.	.	.	.	.
16d#	-la-	.	.	.	.	.
16d#q	_	.	.	.	.	.
[16e	-by!	.	.	.	.	.
=27	=27	=27	=27	=27	=27	=27
*M4/4	*	*	*	*	*	*
1e_	_	2BM	B:maj (B D# F#)	.	.	voice
=26	=26	=26	=26	=26	=26	=26
*	*	*M2/4	*M2/4	*M2/4	*M2/4	*M2/4
.	.	2EM	E:maj (E G# B)	.	.	voice
=28	=28	=28	=28	=28	=28	=28
*	*	*M4/4	*M4/4	*M4/4	*M4/4	*M4/4
2e]	_	1AM	A:maj (A C# E)	.	.	voice
8r	_	.	.	.	.	.
16e	Ro-	.	.	.	.	.
16e	-cky	.	.	.	.	.
8c#	Moun-	.	.	.	.	.
16G#	-tain	.	.	.	.	.
[16B	High!	.	.	.	.	.
=29	=29	=29	=29	=29	=29	=29
2.B_	_	2.AM	A:maj (A C# E)	.	.	voice
8B]	_	4BM	B:sus4(b7) (B E F# A)	.	.	voice
8r	_	.	.	.	.	.
=30	=30	=30	=30	=30	=30	=30
*	*	*>A2_interlude	*>A2_interlude	*>A2_interlude	*>A2_interlude	*>A2_interlude
2r	.	1EM	E:maj (E G# B)	newline	82.356	voice
8r	.	.	.	.	.	.
16c#	Ro-	.	.	.	.	.
16c#	-cky	.	.	.	.	.
8c#	Moun-	.	.	.	.	.
8G#	-tain	.	.	.	.	.
=31	=31	=31	=31	=31	=31	=31
[2B	High!	2F#mm	F#:min7 (F# A C# E)	.	.	voice
8B]	_	4AM	A:maj (A C# E)	.	.	voice
8r	_	.	.	.	.	.
4r	.	4BM	B:sus4(b7) (B E F# A)	.	.	voice
=32	=32	=32	=32	=32	=32	=32
2r	.	1EM	E:maj (E G# B)	.	.	voice
4r	.	.	.	.	.	.
8r	.	.	.	.	.	.
16B	He	.	.	.	.	.
16B	c-	.	.	.	.	.
=33	=33	=33	=33	=33	=33	=33
8.B	-limbed	2F#mm	F#:min7 (F# A C# E)	.	.	voice
16B	Ca-	.	.	.	.	.
8B	-the-	.	.	.	.	.
16B	-dral	.	.	.	.	.
[16B	Moun	.	.	.	.	.
16B]	_	4AM	A:maj (A C# E)	.	.	voice
8G#	tains,	.	.	.	.	.
16r	_	.	.	.	.	.
16r	.	4BM	B:sus4(b7) (B E F# A)	.	.	voice
16G#	he	.	.	.	.	.
8B	saw	.	.	.	.	.
=34	=34	=34	=34	=34	=34	=34
*	*	*>A_verse	*>A_verse	*>A_verse	*>A_verse	*>A_verse
8B	sil-	1EM	E:maj (E G# B)	newline	94.107	voice
16G#	-ver	.	.	.	.	.
[16F#	clouds	.	.	.	.	.
8F#]	_	.	.	.	.	.
16E	be-	.	.	.	.	.
[16F#	-low,	.	.	.	.	.
8F#]	_	.	.	.	.	.
8r	_	.	.	.	.	.
8r	.	.	.	.	.	.
8A	saw	.	.	.	.	.
=35	=35	=35	=35	=35	=35	=35
16B	ev-	2F#mm	F#:min7 (F# A C# E)	.	.	voice
16B	-'ry-	.	.	.	.	.
[8B	-thing	.	.	.	.	.
8B]	_	.	.	.	.	.
8B	as	.	.	.	.	.
8.B	far	4AM	A:maj (A C# E)	.	.	voice
16B	as	.	.	.	.	.
16A	you	4BM	B:sus4(b7) (B E F# A)	.	.	voice
8.G#	can	.	.	.	.	.
=36	=36	=36	=36	=36	=36	=36
4E	see	1EM	E:maj (E G# B)	.	.	voice
4r	.	.	.	.	.	.
4r	.	.	.	.	.	.
8r	.	.	.	.	.	.
16B	And	.	.	.	.	.
16B	they	.	.	.	.	.
=37	=37	=37	=37	=37	=37	=37
8B	say	2F#mm	F#:min7 (F# A C# E)	.	.	voice
16B	that	.	.	.	.	.
[16B	he	.	.	.	.	.
16B]	_	.	.	.	.	.
8c#	got	.	.	.	.	.
16c#q	_	.	.	.	.	.
[16e	cra	.	.	.	.	.
8e]	_	4AM	A:maj (A C# E)	.	.	voice
16c#	zy	.	.	.	.	.
16B	once,	.	.	.	.	.
4r	_	4BM	B:sus4(b7) (B E F# A)	.	.	voice
=38	=38	=38	=38	=38	=38	=38
8B	tried	1EM	E:maj (E G# B)	newline	105.796	voice
16A	to	.	.	.	.	.
[16A	touch	.	.	.	.	.
8A]	_	.	.	.	.	.
16G#	the	.	.	.	.	.
16F#	sun,	.	.	.	.	.
4r	_	.	.	.	.	.
8r	.	.	.	.	.	.
16B	and	.	.	.	.	.
16B	he	.	.	.	.	.
=39	=39	=39	=39	=39	=39	=39
8B	lost	2F#mm	F#:min7 (F# A C# E)	.	.	voice
16B	a	.	.	.	.	.
[16B	friend,	.	.	.	.	.
8B]	_	.	.	.	.	.
8B	but	.	.	.	.	.
8B	kept	4AM	A:maj (A C# E)	.	.	voice
8B	the	.	.	.	.	.
16A	me-	4BM	B:sus4(b7) (B E F# A)	.	.	voice
8G#	-mo-	.	.	.	.	.
[16E	-ry	.	.	.	.	.
=40	=40	=40	=40	=40	=40	=40
2E]	_	1EM	E:maj (E G# B)	.	.	voice
4r	.	.	.	.	.	.
8r	.	.	.	.	.	.
16B	Now	.	.	.	.	.
16B	he	.	.	.	.	.
=41	=41	=41	=41	=41	=41	=41
8B	walks	2F#mm	F#:min7 (F# A C# E)	.	.	voice
8B	in	.	.	.	.	.
16B	qui-	.	.	.	.	.
8.B	-et	.	.	.	.	.
16B	so-	4AM	A:maj (A C# E)	.	.	voice
16B	-li-	.	.	.	.	.
[8B	-tude,	.	.	.	.	.
8B]	_	4BM	B:sus4(b7) (B E F# A)	.	.	voice
16B	the	.	.	.	.	.
[16B	fo	.	.	.	.	.
=42	=42	=42	=42	=42	=42	=42
8B]	_	1EM	E:maj (E G# B)	newline	117.458	voice
8A	rests	.	.	.	.	.
16A	and	.	.	.	.	.
16B	the	.	.	.	.	.
8F#	streams,	.	.	.	.	.
4r	_	.	.	.	.	.
16B	see-	.	.	.	.	.
8.B	-king	.	.	.	.	.
=43	=43	=43	=43	=43	=43	=43
4B	grace	2F#mm	F#:min7 (F# A C# E)	.	.	voice
8r	.	.	.	.	.	.
16B	in	.	.	.	.	.
[16B	ev	.	.	.	.	.
16B]	_	4AM	A:maj (A C# E)	.	.	voice
8.B	'ry	.	.	.	.	.
16A	step	4BM	B:sus4(b7) (B E F# A)	.	.	voice
16G#	_	.	.	.	.	.
16G#	he	.	.	.	.	.
16E	takes	.	.	.	.	.
=44	=44	=44	=44	=44	=44	=44
2r	.	1EM	E:maj (E G# B)	.	.	voice
4r	.	.	.	.	.	.
8r	.	.	.	.	.	.
8B	His	.	.	.	.	.
=45	=45	=45	=45	=45	=45	=45
8B	sight	2F#mm	F#:min7 (F# A C# E)	.	.	voice
8B	has	.	.	.	.	.
16B	turned	.	.	.	.	.
8c#	in-	.	.	.	.	.
[16e	-side	.	.	.	.	.
8e]	_	4AM	A:maj (A C# E)	.	.	voice
8c#	him-	.	.	.	.	.
8.B	-self,	4BM	B:sus4(b7) (B E F# A)	.	.	voice
16B	to	.	.	.	.	.
=46	=46	=46	=46	=46	=46	=46
6B	try	1EM	E:maj (E G# B)	newline	129.238	voice
12A	and	.	.	.	.	.
12A	un-	.	.	.	.	.
12G#	-der-	.	.	.	.	.
12F#	-stand,	.	.	.	.	.
4r	_	.	.	.	.	.
8r	.	.	.	.	.	.
16B	the	.	.	.	.	.
16B	se-	.	.	.	.	.
=47	=47	=47	=47	=47	=47	=47
16B	-re-	2F#mm	F#:min7 (F# A C# E)	.	.	voice
16B	-ni-	.	.	.	.	.
4B	-ty	.	.	.	.	.
16B	of	.	.	.	.	.
16B	a	.	.	.	.	.
8B	clear	4AM	A:maj (A C# E)	.	.	voice
8B	blue	.	.	.	.	.
16A	moun	4BM	B:sus4(b7) (B E F# A)	.	.	voice
16G#	_	.	.	.	.	.
8E	tain	.	.	.	.	.
=48	=48	=48	=48	=48	=48	=48
2E	lake	1EM	E:maj (E G# B)	.	.	voice
4r	.	.	.	.	.	.
8.r	.	.	.	.	.	.
16E	The	.	.	.	.	.
=49	=49	=49	=49	=49	=49	=49
16Bq	_	.	.	.	.	.
8c#	Co-	2F#mm	F#:min7 (F# A C# E)	.	.	voice
16c#	-lo-	.	.	.	.	.
[16c#	-ra	.	.	.	.	.
16c#]	_	.	.	.	.	.
8.c#	do	.	.	.	.	.
8c#q	_	.	.	.	.	.
8B	Ro-	4AM	A:maj (A C# E)	.	.	voice
16B	-cky	.	.	.	.	.
[16B	Moun	.	.	.	.	.
16B]	_	4BM	B:sus4(b7) (B E F# A)	.	.	voice
16G#	tain	.	.	.	.	.
16BQ	_	.	.	.	.	.
16c#Q	_	.	.	.	.	.
[8B	High!	.	.	.	.	.
=50	=50	=50	=50	=50	=50	=50
*	*	*>B_chorus	*>B_chorus	*>B_chorus	*>B_chorus	*>B_chorus
2B_	_	2AM	A:maj (A C# E)	newline	140.969	voice
8B]	_	2BM	B:maj (B D# F#)	.	.	voice
8r	_	.	.	.	.	.
8r	.	.	.	.	.	.
8c#	I've	.	.	.	.	.
=51	=51	=51	=51	=51	=51	=51
16c#	seen	1EM	E:maj (E G# B)	.	.	voice
8.c#	it	.	.	.	.	.
16c#q	_	.	.	.	.	.
8B	rain-	.	.	.	.	.
8B	-ing	.	.	.	.	.
8B	fi-	.	.	.	.	.
8B	-re	.	.	.	.	.
16B	in	.	.	.	.	.
8A	the	.	.	.	.	.
[16G#	sky!	.	.	.	.	.
=52	=52	=52	=52	=52	=52	=52
2G#]	_	2AM	A:maj (A C# E)	.	.	voice
4r	_	2BM	B:maj (B D# F#)	.	.	voice
8r	.	.	.	.	.	.
8B	He	.	.	.	.	.
=53	=53	=53	=53	=53	=53	=53
8c#	talked	1EM	E:maj (E G# B)	.	.	voice
16B	to	.	.	.	.	.
[16c#	God,	.	.	.	.	.
8c#]	_	.	.	.	.	.
16r	_	.	.	.	.	.
16E	and	.	.	.	.	.
16c#	lis-	.	.	.	.	.
8.d#	-tened	.	.	.	.	.
8d#	to	.	.	.	.	.
16c#	the	.	.	.	.	.
[16B	ca	.	.	.	.	.
=54	=54	=54	=54	=54	=54	=54
*M2/4	*	*	*	*	*	*
8.B]	_	2AM	A:maj (A C# E)	newline	152.607	voice
16B	su-	.	.	.	.	.
8c#	-al	.	.	.	.	.
8d#	re-	.	.	.	.	.
=55	=55	=55	=55	=55	=55	=55
*M4/4	*	*	*	*	*	*
[1e	-ply!	2BM	B:maj (B D# F#)	.	.	voice
=54	=54	=54	=54	=54	=54	=54
*	*	*M2/4	*M2/4	*M2/4	*M2/4	*M2/4
.	.	2EM	E:maj (E G# B)	.	.	voice
=56	=56	=56	=56	=56	=56	=56
*	*	*M4/4	*M4/4	*M4/4	*M4/4	*M4/4
2e]	_	1AM	A:maj (A C# E)	.	.	voice
8r	_	.	.	.	.	.
16e	Ro-	.	.	.	.	.
16e	-cky	.	.	.	.	.
8c#	Moun-	.	.	.	.	.
16G#	-tain	.	.	.	.	.
[16B	High!	.	.	.	.	.
=57	=57	=57	=57	=57	=57	=57
2.B]	_	2.AM	A:maj (A C# E)	.	.	voice
4r	_	4BM	B:sus4(b7) (B E F# A)	.	.	voice
=58	=58	=58	=58	=58	=58	=58
*	*	*>A2_interlude	*>A2_interlude	*>A2_interlude	*>A2_interlude	*>A2_interlude
2r	.	1EM	E:maj (E G# B)	newline	162.892	voice
8r	.	.	.	.	.	.
16c#	Ro-	.	.	.	.	.
16c#	-cky	.	.	.	.	.
8c#	Moun-	.	.	.	.	.
8G#	-tain	.	.	.	.	.
=59	=59	=59	=59	=59	=59	=59
[2B	High!	2F#mm	F#:min7 (F# A C# E)	.	.	voice
16B]	_	4AM	A:maj (A C# E)	.	.	voice
16G#	_	.	.	.	.	.
8r	_	.	.	.	.	.
4r	.	4BM	B:sus4(b7) (B E F# A)	.	.	voice
=60	=60	=60	=60	=60	=60	=60
1r	.	1EM	E:maj (E G# B)	.	.	voice
=61	=61	=61	=61	=61	=61	=61
2r	.	2F#mm	F#:min7 (F# A C# E)	.	.	voice
4r	.	4AM	A:maj (A C# E)	.	.	voice
8r	.	4BM	B:sus4(b7) (B E F# A)	.	.	voice
16B	Now	.	.	.	.	.
16B	his	.	.	.	.	.
=62	=62	=62	=62	=62	=62	=62
*	*	*>A_verse	*>A_verse	*>A_verse	*>A_verse	*>A_verse
8B	life	1EM	E:maj (E G# B)	newline	174.606	voice
8B	is	.	.	.	.	.
16B	full	.	.	.	.	.
16B	of	.	.	.	.	.
8B	won-	.	.	.	.	.
8G#	-der,	.	.	.	.	.
8r	_	.	.	.	.	.
8r	.	.	.	.	.	.
16B	but	.	.	.	.	.
16B	his	.	.	.	.	.
=63	=63	=63	=63	=63	=63	=63
8B	heart	2F#mm	F#:min7 (F# A C# E)	.	.	voice
16A	still	.	.	.	.	.
[16A	knows	.	.	.	.	.
8A]	_	.	.	.	.	.
16B	some	.	.	.	.	.
[16F#	fear,	.	.	.	.	.
8F#]	_	4AM	A:maj (A C# E)	.	.	voice
8r	_	.	.	.	.	.
8r	.	4BM	B:sus4(b7) (B E F# A)	.	.	voice
16A	of	.	.	.	.	.
16A	a	.	.	.	.	.
=64	=64	=64	=64	=64	=64	=64
16B	sim-	1EM	E:maj (E G# B)	.	.	voice
8B	-ple	.	.	.	.	.
[16B	thing	.	.	.	.	.
8.B]	_	.	.	.	.	.
16B	he	.	.	.	.	.
16B	can-	.	.	.	.	.
8.B	-not	.	.	.	.	.
16A	com	.	.	.	.	.
16G#	_	.	.	.	.	.
16G#	pre-	.	.	.	.	.
16E	-hend	.	.	.	.	.
=65	=65	=65	=65	=65	=65	=65
2r	.	2F#mm	F#:min7 (F# A C# E)	.	.	voice
4r	.	4AM	A:maj (A C# E)	.	.	voice
8r	.	4BM	B:sus4(b7) (B E F# A)	.	.	voice
16B	Why	.	.	.	.	.
16B	they	.	.	.	.	.
=66	=66	=66	=66	=66	=66	=66
8B	try	1EM	E:maj (E G# B)	newline	186.412	voice
16B	to	.	.	.	.	.
[16B	rear	.	.	.	.	.
8B]	_	.	.	.	.	.
16c#	the	.	.	.	.	.
[16e	moun	.	.	.	.	.
16e]	_	.	.	.	.	.
8c#	tains	.	.	.	.	.
[16B	down,	.	.	.	.	.
8.B]	_	.	.	.	.	.
16B	to	.	.	.	.	.
=67	=67	=67	=67	=67	=67	=67
16B	bring	2F#mm	F#:min7 (F# A C# E)	.	.	voice
16A	in	.	.	.	.	.
16A	a	.	.	.	.	.
16A	cou-	.	.	.	.	.
8B	-ple	.	.	.	.	.
8F#	more,	.	.	.	.	.
4r	_	4AM	A:maj (A C# E)	.	.	voice
8r	.	4BM	B:sus4(b7) (B E F# A)	.	.	voice
8B	more	.	.	.	.	.
=68	=68	=68	=68	=68	=68	=68
16B	peo-	1EM	E:maj (E G# B)	.	.	voice
8.B	-ple,	.	.	.	.	.
8r	_	.	.	.	.	.
8B	more	.	.	.	.	.
8.B	scars	.	.	.	.	.
16B	u-	.	.	.	.	.
16A	-pon	.	.	.	.	.
16G#	_	.	.	.	.	.
16E	the	.	.	.	.	.
[16E	land	.	.	.	.	.
=69	=69	=69	=69	=69	=69	=69
4E]	_	2F#mm	F#:min7 (F# A C# E)	.	.	voice
4r	.	.	.	.	.	.
4r	.	4AM	A:maj (A C# E)	.	.	voice
8r	.	4BM	B:sus4(b7) (B E F# A)	.	.	voice
16E	And	.	.	.	.	.
16E	the	.	.	.	.	.
=70	=70	=70	=70	=70	=70	=70
*	*	*>B2_chorus	*>B2_chorus	*>B2_chorus	*>B2_chorus	*>B2_chorus
16Bq	_	.	.	.	.	.
8c#	Co-	2AM	A:maj (A C# E)	newline	198.2	voice
16c#	-lo-	.	.	.	.	.
[16c#	-ra	.	.	.	.	.
16c#]	_	.	.	.	.	.
8.c#	do	.	.	.	.	.
8c#	Ro-	2BM	B:maj (B D# F#)	.	.	voice
16B	-cky	.	.	.	.	.
[16B	Moun	.	.	.	.	.
16B]	_	.	.	.	.	.
16G#	tain	.	.	.	.	.
16Aq	_	.	.	.	.	.
[8B	High!	.	.	.	.	.
=71	=71	=71	=71	=71	=71	=71
2B]	_	1EM	E:maj (E G# B)	.	.	voice
4r	_	.	.	.	.	.
8r	.	.	.	.	.	.
8c#	I've	.	.	.	.	.
=72	=72	=72	=72	=72	=72	=72
16c#	seen	2AM	A:maj (A C# E)	.	.	voice
8.c#	it	.	.	.	.	.
16c#q	_	.	.	.	.	.
8B	rain-	.	.	.	.	.
8B	-ing	.	.	.	.	.
8B	fi-	2BM	B:maj (B D# F#)	.	.	voice
8B	-re	.	.	.	.	.
16B	in	.	.	.	.	.
8A	the	.	.	.	.	.
[16G#	sky!	.	.	.	.	.
=73	=73	=73	=73	=73	=73	=73
4.G#]	_	1EM	E:maj (E G# B)	.	.	voice
8r	_	.	.	.	.	.
4r	.	.	.	.	.	.
8.r	.	.	.	.	.	.
16E	He	.	.	.	.	.
=74	=74	=74	=74	=74	=74	=74
16B	knows	2AM	A:maj (A C# E)	newline	209.951	voice
8c#	he'd	.	.	.	.	.
[16c#	be	.	.	.	.	.
8c#]	_	.	.	.	.	.
16c#	a	.	.	.	.	.
[16d#	poor	.	.	.	.	.
16d#]	_	2BM	B:maj (B D# F#)	.	.	voice
16d#	er	.	.	.	.	.
8c#	man,	.	.	.	.	.
8r	_	.	.	.	.	.
16G#	if	.	.	.	.	.
16B	he	.	.	.	.	.
=75	=75	=75	=75	=75	=75	=75
*M2/4	*	*M2/4	*M2/4	*M2/4	*M2/4	*M2/4
16B	ne-	2EM	E:maj (E G# B)	.	.	voice
16B	-ver	.	.	.	.	.
16B	saw	.	.	.	.	.
16B	an	.	.	.	.	.
16c#	ea-	.	.	.	.	.
8.d#	-gle	.	.	.	.	.
=76	=76	=76	=76	=76	=76	=76
*M4/4	*	*M4/4	*M4/4	*M4/4	*M4/4	*M4/4
[1e	fly!	1AM	A:maj (A C# E)	.	.	voice
=77	=77	=77	=77	=77	=77	=77
2e]	_	2.AM	A:maj (A C# E)	.	.	voice
8r	_	.	.	.	.	.
16e	Ro-	.	.	.	.	.
16e	-cky	.	.	.	.	.
8c#	Moun-	4BM	B:sus4(b7) (B E F# A)	.	.	voice
16G#	-tain	.	.	.	.	.
[16B	High!	.	.	.	.	.
=78	=78	=78	=78	=78	=78	=78
2.B]	_	1EM	E:maj (E G# B)	newline	220.489	voice
8r	_	.	.	.	.	.
16c#	It's	.	.	.	.	.
16d#	a	.	.	.	.	.
=79	=79	=79	=79	=79	=79	=79
8e	Co-	2AM	A:maj (A C# E)	newline	223.194	voice
16e	-lo-	.	.	.	.	.
[16e	-ra	.	.	.	.	.
16e]	_	.	.	.	.	.
8e	do	.	.	.	.	.
16d#	_	.	.	.	.	.
16d#	Ro	2BM	B:maj (B D# F#)	.	.	voice
16c#	_	.	.	.	.	.
16c#	cky	.	.	.	.	.
[16c#	Moun	.	.	.	.	.
8c#]	_	.	.	.	.	.
16B	tain	.	.	.	.	.
16BQ	_	.	.	.	.	.
16c#Q	_	.	.	.	.	.
[16B	High!	.	.	.	.	.
=80	=80	=80	=80	=80	=80	=80
2B_	_	1EM	E:maj (E G# B)	.	.	voice
8B]	_	.	.	.	.	.
8r	_	.	.	.	.	.
16r	.	.	.	.	.	.
8.e	I've	.	.	.	.	.
=81	=81	=81	=81	=81	=81	=81
16e	seen	2AM	A:maj (A C# E)	.	.	voice
8.e	it	.	.	.	.	.
16e	rain-	.	.	.	.	.
8e	-ing	.	.	.	.	.
[16d#	fire	.	.	.	.	.
4d#]	_	2BM	B:maj (B D# F#)	.	.	voice
16B	in	.	.	.	.	.
8B	the	.	.	.	.	.
16B	sky!	.	.	.	.	.
=82	=82	=82	=82	=82	=82	=82
8G#	_	1EM	E:maj (E G# B)	.	.	voice
8r	_	.	.	.	.	.
4r	.	.	.	.	.	.
2r	.	.	.	.	.	.
=83	=83	=83	=83	=83	=83	=83
8c#	Friends	2AM	A:maj (A C# E)	newline	234.82	voice
16c#	a-	.	.	.	.	.
[16c#	-round	.	.	.	.	.
8c#]	_	.	.	.	.	.
16c#	the	.	.	.	.	.
16d#	camp	.	.	.	.	.
16r	.	2BM	B:maj (B D# F#)	.	.	voice
16d#	fire!	.	.	.	.	.
16e	_	.	.	.	.	.
[16f#	_	.	.	.	.	.
8f#]	_	.	.	.	.	.
8r	_	.	.	.	.	.
=84	=84	=84	=84	=84	=84	=84
*M2/4	*	*M2/4	*M2/4	*M2/4	*M2/4	*M2/4
8e	Ev-	2EM	E:maj (E G# B)	.	.	voice
16e	-'ry-	.	.	.	.	.
16eq	_	.	.	.	.	.
[16c#	-bo	.	.	.	.	.
16c#]	_	.	.	.	.	.
8.B	dy's	.	.	.	.	.
=85	=85	=85	=85	=85	=85	=85
*M4/4	*	*M4/4	*M4/4	*M4/4	*M4/4	*M4/4
16c#	high!	1AM	A:maj (A C# E)	.	.	voice
[8.e	_	.	.	.	.	.
2.e_	_	.	.	.	.	.
=86	=86	=86	=86	=86	=86	=86
2e]	_	2.AM	A:maj (A C# E)	.	.	voice
8r	_	.	.	.	.	.
16e	Ro-	.	.	.	.	.
16e	-cky	.	.	.	.	.
8c#	Moun-	4BM	B:sus4(b7) (B E F# A)	.	.	voice
16G#	-tain	.	.	.	.	.
[16B	High!	.	.	.	.	.
=87	=87	=87	=87	=87	=87	=87
*	*	*>A2_outro	*>A2_outro	*>A2_outro	*>A2_outro	*>A2_outro
2.B]	_	1EM	E:maj (E G# B)	newline	245.121	voice
=88	=88	=88	=88	=88	=88	=88
2r	_	.	.	.	.	.
=87	=87	=87	=87	=87	=87	=87
.	.	2F#mm	F#:min7 (F# A C# E)	.	.	voice
8r	.	.	.	.	.	.
16c#	Ro-	.	.	.	.	.
16c#	-cky	.	.	.	.	.
8c#	Moun-	4AM	A:maj (A C# E)	.	.	voice
8G#	-tain	.	.	.	.	.
=89	=89	=89	=89	=89	=89	=89
2.B	High!	4BM	B:sus4(b7) (B E F# A)	.	.	voice
=88	=88	=88	=88	=88	=88	=88
.	.	1EM	E:maj (E G# B)	.	.	voice
4r	_	.	.	.	.	.
=90	=90	=90	=90	=90	=90	=90
2r	.	.	.	.	.	.
=89	=89	=89	=89	=89	=89	=89
.	.	2F#mm	F#:min7 (F# A C# E)	.	.	voice
8r	.	.	.	.	.	.
16c#	Ro-	.	.	.	.	.
16c#	-cky	.	.	.	.	.
16c#	Moun	4AM	A:maj (A C# E)	.	.	voice
16B	_	.	.	.	.	.
16A	tain	.	.	.	.	.
[16G#	High	.	.	.	.	.
=91	=91	=91	=91	=91	=91	=91
2.G#]	_	4BM	B:sus4(b7) (B E F# A)	.	.	voice
=90	=90	=90	=90	=90	=90	=90
.	.	1EM	E:maj (E G# B)	newline	256.792	voice
4r	.	.	.	.	.	.
=92	=92	=92	=92	=92	=92	=92
2r	.	.	.	.	.	.
=91	=91	=91	=91	=91	=91	=91
.	.	2F#mm	F#:min7 (F# A C# E)	.	.	voice
8r	.	.	.	.	.	.
16c#	Ro-	.	.	.	.	.
16c#	-cky	.	.	.	.	.
8c#	Moun-	4AM	A:maj (A C# E)	.	.	voice
8B	-tain	.	.	.	.	.
=93	=93	=93	=93	=93	=93	=93
4B	High!	4BM	B:sus4(b7) (B E F# A)	.	.	voice
=92	=92	=92	=92	=92	=92	=92
[2.b	_	1EM	E:maj (E G# B)	.	.	voice
=94	=94	=94	=94	=94	=94	=94
2b]	_	.	.	.	.	.
=93	=93	=93	=93	=93	=93	=93
.	.	2F#mm	F#:min7 (F# A C# E)	.	.	voice
8r	_	.	.	.	.	.
8b	Hee	.	.	.	.	.
8cc#	_	4AM	A:maj (A C# E)	.	.	voice
8b	_	.	.	.	.	.
=95	=95	=95	=95	=95	=95	=95
1b	hee!	4BM	B:sus4(b7) (B E F# A)	.	.	voice
=94	=94	=94	=94	=94	=94	=94
*	*	*>_fadeout	*>_fadeout	*>_fadeout	*>_fadeout	*>_fadeout
.	.	1EM	E:maj (E G# B)	newline	268.428	voice
=96	=96	=96	=96	=96	=96	=96
1r	.	.	.	.	.	.
=95	=95	=95	=95	=95	=95	=95
.	.	2F#mm	F#:min7 (F# A C# E)	.	.	voice
.	.	4AM	A:maj (A C# E)	.	.	voice
*-	*-	*	*
4BM	B:sus4(b7) (B E F# A)	.	.	voice
=96	=96	=96	=96	=96
1EM	E:maj (E G# B)	.	.	voice
=97	=97	=97	=97	=97
2F#mm	F#:min7 (F# A C# E)	.	.	voice
4AM	A:maj (A C# E)	.	.	voice
4BM	B:sus4(b7) (B E F# A)	.	.	voice
1r;	r	.	281.147	r
1r;	r	.	286.188	r
*-	*-	*-	*-	*-
!!!BillboardChartDate: 1972/12/23
!!!BillboardPeak: 9
!!!BillboardWeeksOnChart: 19
!!!COC: John Denver
!!!ENC: Nathaniel Condit-Schultz
!!!EST: Awating manual error checking and editing.
!!!OTL: Rocky Mountain High
!!!RDF**chordsym: original McGill chord annotation + (implied pitch class set, with bass pitch in first position)
!!!RDF**harmony: **recip + pitch class of root + harmonic quality
!!!RDF**leadinstrument: original McGill primary instrumentation annotation
!!!RDF**phrase: newline = linebreak in original McGill transcription
!!!RDF**timestamp: McGill audio timestamp in seconds
!!!RDT: 2017/01/12/
!!!SampleActualRank: 46
!!!SampleID#: 0720
!!!SampleTargetRank: 47
